X: 1
T: The King's Bow
R: reel
M: 4/4
L: 1/8
K: Gmix
|:DGGE F2EF|DGGE FDCF|DGGE FDDB,|CEDC B,2A,B,|
G,GGE F2EF|DG~G2 ABcA|B2AG FDDB,|CEDC B,G,G,2:|
|:DGGF DGGF|DGGE FDCF|DGG^F GABc|dBcA BGA^F|
DG~G2 DGGF|DGGE FDCA,|G,2 (3A,B,C DGGE|1 FDCA, A,G,G,2:|2 FDCA, G,4||

